Numix-GalliumOS/22/categories/preferences-system-network-proxy.svg

<?xml version="1.0" encoding="UTF-8" standalone="no"?>
<svg
   xmlns:dc="http://purl.org/dc/elements/1.1/"
   xmlns:cc="http://creativecommons.org/ns#"
   xmlns:rdf="http://www.w3.org/1999/02/22-rdf-syntax-ns#"
   xmlns:svg="http://www.w3.org/2000/svg"
   xmlns="http://www.w3.org/2000/svg"
   xmlns:sodipodi="http://sodipodi.sourceforge.net/DTD/sodipodi-0.dtd"
   xmlns:inkscape="http://www.inkscape.org/namespaces/inkscape"
   width="22"
   height="22"
   viewBox="0 0 22 22"
   id="svg2"
   version="1.1"
   inkscape:version="0.91 r"
   sodipodi:docname="preferences-system-network-proxy.svg">
  <metadata
     id="metadata28">
    <rdf:RDF>
      <cc:Work
         rdf:about="">
        <dc:format>image/svg+xml</dc:format>
        <dc:type
           rdf:resource="http://purl.org/dc/dcmitype/StillImage" />
        <dc:title />
      </cc:Work>
    </rdf:RDF>
  </metadata>
  <defs
     id="defs26" />
  <sodipodi:namedview
     pagecolor="#ffffff"
     bordercolor="#666666"
     borderopacity="1"
     objecttolerance="10"
     gridtolerance="10"
     guidetolerance="10"
     inkscape:pageopacity="0"
     inkscape:pageshadow="2"
     inkscape:window-width="1920"
     inkscape:window-height="1056"
     id="namedview24"
     showgrid="true"
     inkscape:zoom="29.5"
     inkscape:cx="9.8788857"
     inkscape:cy="7.0798246"
     inkscape:window-x="0"
     inkscape:window-y="24"
     inkscape:window-maximized="1"
     inkscape:current-layer="svg2">
    <inkscape:grid
       type="xygrid"
       id="grid4156" />
  </sodipodi:namedview>
  <path
     style="fill:#e78684;fill-opacity:1"
     d="M 11,2 C 9.620885,2 8.318433,2.319973 7.149414,2.8759765 l -0.08301,-0.030275 c -0.01035,0.02808 -0.01905,0.056836 -0.0293,0.084961 C 4.0578915,4.3988525 2,7.4581845 2,11 c 0,3.544607 2.060921,6.606421 5.043946,8.073242 0.01175,0.02735 0.02131,0.05573 0.03321,0.08301 l 0.07324,-0.03223 C 8.319207,19.67979 9.621197,20 11,20 c 1.379578,0 2.682243,-0.320599 3.851562,-0.876953 l 0.07422,0.03223 c 0.01199,-0.02755 0.02135,-0.05636 0.0332,-0.08398 C 17.940318,17.603861 20,14.543368 20,11 20,7.4592725 17.943553,4.400361 14.96582,2.9316405 14.95548,2.9032255 14.946965,2.8740725 14.936526,2.845703 l -0.08496,0.03125 C 13.682243,2.3205985 12.379578,2 11,2 Z M 10.5,3.0253905 10.5,6.5 l 1,0 0,-3.4746095 c 0.941738,0.058098 1.836021,0.2817725 2.660156,0.636719 C 14.534627,4.750364 14.833726,5.8681105 15.047851,7 L 14,7 l 0,1 1.214844,0 c 0.121126,0.8324235 0.195264,1.667833 0.225585,2.5 L 14,10.5 l 0,1 1.454101,0 c -0.0072,0.843142 -0.06013,1.678941 -0.166015,2.5 L 14,14 l 0,1 1.133789,0 c -0.210765,1.155967 -0.53003,2.271812 -0.954102,3.330078 C 13.35022,18.68943 12.448982,18.916064 11.5,18.974609 l 0,-3.474609 -1,0 0,3.474609 C 9.552542,18.916159 8.65259,18.690369 7.824219,18.332031 7.399094,17.273228 7.079422,16.156537 6.868164,15 L 8,15 8,14 6.712891,14 C 6.606846,13.179074 6.554043,12.342992 6.546875,11.5 L 8,11.5 l 0,-1 -1.439453,0 C 6.590912,9.667658 6.66476,8.832614 6.786133,8 L 8,8 8,7 6.953125,7 C 7.16766,5.8679245 7.467551,4.749636 7.842774,3.661133 8.666132,3.3068995 9.559338,3.083422 10.5,3.0253905 Z M 6.572266,4.350586 C 6.31277,5.221658 6.095856,6.10654 5.932617,7 L 4.0791015,7 C 4.6959035,5.936111 5.552412,5.0307335 6.572266,4.350586 Z m 8.859374,0.00195 C 16.449904,5.032423 17.304822,5.9373635 17.920898,7 L 16.069336,7 C 15.906469,6.107345 15.690455,5.222872 15.43164,4.352539 Z M 3.5810547,8 5.769531,8 C 5.652475,8.831933 5.58412,9.667227 5.5546875,10.5 l -2.5302735,0 C 3.0787762,9.620625 3.2660035,8.778625 3.5810547,8 Z m 12.6503903,0 2.1875,0 c 0.315051,0.778625 0.502278,1.620625 0.556641,2.5 l -2.529297,0 C 16.416914,9.66697 16.348381,8.832198 16.231445,8 Z m -13.207031,3.5 2.5166015,0 c 0.00678,0.841345 0.059235,1.676275 0.161133,2.5 L 3.5986328,14 C 3.2828896,13.219619 3.0788506,12.381597 3.024414,11.5 Z m 13.435547,0 2.515625,0 c -0.05444,0.881597 -0.258476,1.719619 -0.574219,2.5 l -2.102539,0 c 0.101762,-0.823578 0.154337,-1.658808 0.161133,-2.5 z M 4.0791015,15 5.8515625,15 C 6.006249,15.887329 6.219857,16.756344 6.494141,17.59961 5.5075235,16.925518 4.679248,16.038325 4.0791015,15 Z m 12.0712885,0 1.770508,0 c -0.599692,1.03754 -1.427457,1.923749 -2.413086,2.597656 C 15.781492,16.754958 15.995991,15.886684 16.15039,15 Z"
     id="path6"
     inkscape:connector-curvature="0" />
  <rect
     style="opacity:1;fill:none;fill-opacity:1;fill-rule:nonzero;stroke:#e78684;stroke-width:1;stroke-linecap:round;stroke-linejoin:miter;stroke-miterlimit:4;stroke-dasharray:none;stroke-dashoffset:0;stroke-opacity:1"
     id="rect4185"
     width="6"
     height="9"
     x="8"
     y="6.5"
     rx="0.044091702"
     ry="0.042145349" />
  <circle
     style="opacity:1;fill:#e78684;fill-opacity:1;fill-rule:nonzero;stroke:none;stroke-width:2;stroke-linecap:round;stroke-linejoin:miter;stroke-miterlimit:4;stroke-dasharray:none;stroke-dashoffset:0;stroke-opacity:1"
     id="path4203"
     cx="12"
     cy="11"
     r="0.75" />
</svg>

<svg xmlns="http://www.w3.org/2000/svg" viewBox="0 0 22 22">
 <path d="m 11 2 c -1.379 0 -2.682 0.32 -3.851 0.876 l -0.083 -0.03 c -0.01 0.028 -0.019 0.057 -0.029 0.085 c -2.979 1.468 -5.04 4.528 -5.04 8.07 c 0 3.545 2.061 6.606 5.04 8.07 0.012 0.027 0.021 0.056 0.033 0.083 l 0.073 -0.032 c 1.169 0.556 2.471 0.876 3.85 0.876 c 1.38 0 2.682 -0.321 3.852 -0.877 l 0.074 0.032 c 0.012 -0.028 0.021 -0.056 0.033 -0.084 c 2.981 -1.467 5.04 -4.528 5.04 -8.07 0 -3.541 -2.056 -6.6 -5.03 -8.07 -0.01 -0.028 -0.019 -0.058 -0.029 -0.086 l -0.085 0.031 c -1.169 -0.556 -2.472 -0.877 -3.852 -0.877 m -0.5 1.025 0 3.475 l 1 0 0 -3.475 c 0.942 0.058 1.836 0.282 2.66 0.637 c 0.374 1.088 0.674 2.206 0.888 3.338 l -1.048 0 l 0 1 1.215 0 c 0.121 0.832 0.195 1.668 0.226 2.5 l -1.44 0 l 0 1 1.454 0 c -0.007 0.843 -0.06 1.679 -0.166 2.5 l -1.288 0 l 0 1 1.134 0 c -0.211 1.156 -0.53 2.272 -0.954 3.33 c -0.829 0.359 -1.731 0.586 -2.68 0.645 l 0 -3.475 -1 0 0 3.475 c -0.947 -0.058 -1.847 -0.284 -2.676 -0.643 -0.425 -1.059 -0.745 -2.175 -0.956 -3.332 l 1.132 0 0 -1 -1.287 0 c -0.106 -0.821 -0.159 -1.657 -0.166 -2.5 l 1.453 0 l 0 -1 -1.439 0 c 0.03 -0.832 0.104 -1.667 0.226 -2.5 l 1.214 0 0 -1 -1.047 0 c 0.215 -1.132 0.514 -2.25 0.89 -3.339 0.823 -0.354 1.717 -0.578 2.657 -0.636 m -3.928 1.325 c -0.259 0.871 -0.476 1.756 -0.64 2.649 l -1.854 0 c 0.617 -1.064 1.473 -1.969 2.493 -2.649 m 8.859 0.002 c 1.018 0.68 1.873 1.585 2.489 2.647 l -1.852 0 c -0.163 -0.893 -0.379 -1.777 -0.638 -2.647 m -11.851 3.647 2.188 0 c -0.117 0.832 -0.185 1.667 -0.215 2.5 l -2.53 0 c 0.054 -0.879 0.242 -1.721 0.557 -2.5 m 12.65 0 2.188 0 c 0.315 0.779 0.502 1.621 0.557 2.5 l -2.529 0 c -0.029 -0.833 -0.098 -1.668 -0.215 -2.5 m -13.207 3.5 2.517 0 c 0.007 0.841 0.059 1.676 0.161 2.5 l -2.104 0 c -0.316 -0.78 -0.52 -1.618 -0.574 -2.5 m 13.436 0 2.516 0 c -0.054 0.882 -0.258 1.72 -0.574 2.5 l -2.103 0 c 0.102 -0.824 0.154 -1.659 0.161 -2.5 z m -12.381 3.5 1.772 0 c 0.155 0.887 0.368 1.756 0.643 2.6 -0.987 -0.674 -1.815 -1.561 -2.415 -2.6 m 12.07 0 1.771 0 c -0.6 1.038 -1.427 1.924 -2.413 2.598 c 0.274 -0.843 0.488 -1.711 0.643 -2.598" style="fill:#e78684;fill-opacity:1"/>
 <rect width="6" height="9" x="8" y="6.5" rx="0.044" ry="0.042" style="stroke-dasharray:none;stroke-opacity:1;fill:none;opacity:1;stroke-miterlimit:4;fill-opacity:1;stroke:#e78684;fill-rule:nonzero;stroke-linecap:round;stroke-linejoin:miter;stroke-width:1;stroke-dashoffset:0"/>
 <circle cx="12" cy="11" r="0.75" style="fill:#e78684;opacity:1;fill-opacity:1;stroke:none;fill-rule:nonzero"/>
</svg>
